X: 1547
T: Kiss Your Partner
T: pog do .co.m.ta.c.
R: reel
B: O'Neill's 1850 "Music of Ireland" #1547
O: McFadden
Z: transcribed by John B. Walsh, walsh@math.ubc.ca 8/23/96
M: C|
L: 1/8
K: G
|: (3(gfe) | d2Bd efge | dBGB AGEG | d2Bd efgb | afdf g2g2 :|
|: d2 | g2{a}gf gbag | fdad bdad |1 g2{a}gf gbag | fdef g2 :|2 edeg fdfb | afdf g2 |]
